X: 2
T: Da Burn O Couster
Z: Thing
S: https://thesession.org/tunes/9707#setting29189
R: slip jig
M: 9/8
L: 1/8
K: Amaj
R: Jig
M: 6/8
|: A2c edc | BcA B2c | EFA B2c | Ace dcB |
A2(e e)dc | BcA B2c | edc dcB :|
c3 Bc(A | A)GF (E3 | E)AE BEc | d2c BAF |
|1 c3 Bc(A | A)GF E2D | CDE Aed :|
|2 c3 Bce | edc dAF | EFA Bed | cBA d3 ||
